_Sony Slog to rec709.cube
TITLE "Generated by Resolve"
LUT_3D_SIZE 5
0 0 0
0.34081 0 0
0.779034 0 0
1 0 0
1 0 0
0 0.269963 0
0.226673 0.242084 0
0.73637 0.125765 0
1 0 0
1 0 0
0 0.653742 0
0 0.642512 0
0.579171 0.605493 0
1 0.537942 0
1 0.49099 0
0 1 0
0 0.994034 0
0.0292515 0.971405 0
0.894987 0.932387 0
1 0.907118 0
0 1 0
0 1 0
0 1 0
0.768261 1 0
1 1 0
0 0 0.242161
0.330495 0 0.237781
0.774655 0 0.223453
1 0 0.197696
1 0 0.180163
0 0.242512 0.216388
0.211582 0.211582 0.211582
0.731701 0.0694591 0.195666
1 0 0.166567
1 0 0.146258
0 0.64268 0.10898
0 0.631251 0.100847
0.573159 0.593484 0.0719615
1 0.524315 0.0221408
1 0.47599 0
0 0.994141 0
0 0.987045 0
0 0.964248 0
0.891234 0.92488 0
1 0.899382 0
0 1 0
0 1 0
0 1 0
0.763806 1 0
1 1 0
0 0 0.605615
0.295644 0 0.60383
0.760601 0 0.598123
1 0 0.588495
1 0 0.582406
0 0.12874 0.595407
0.15642 0.0724498 0.593576
0.716747 0 0.587762
1 0 0.577951
1 0 0.571756
0 0.606241 0.561761
0 0.594064 0.559823
0.553643 0.553643 0.553643
1 0.478553 0.543191
1 0.424979 0.536568
0 0.971847 0.500557
0 0.964584 0.498375
0 0.941176 0.491402
0.879194 0.900694 0.479561
1 0.874418 0.472023
0 1 0.458198
0 1 0.455802
0 1 0.448157
0.749538 1 0.435126
1 1 0.42681
0 0 0.932555
0.227329 0 0.931426
0.736568 0 0.927871
1 0 0.921904
1 0 0.918151
0 0 0.926177
0.0165103 0 0.925048
0.691066 0 0.921447
1 0 0.915434
1 0 0.911665
0 0.539849 0.905638
0 0.52607 0.904479
0.519463 0.479759 0.900801
1 0.390555 0.894636
1 0.323033 0.890761
0 0.93344 0.870268
0 0.925841 0.869062
0 0.90132 0.865217
0.858763 0.858763 0.858763
1 0.831022 0.854719
0 1 0.84741
0 1 0.846159
0 1 0.842191
0.725109 1 0.835554
1 1 0.831373
0 0 1
0.173938 0 1
0.721141 0 1
1 0 1
1 0 1
0 0 1
0 0 1
0.674525 0 1
1 0 1
1 0 1
0 0.493797 1
0 0.47866 1
0.496941 0.427176 1
1 0.324132 1
1 0.240162 1
0 0.908583 1
0 0.900755 1
0 0.875456 1
0.845747 0.831449 1
1 0.80267 1
0 1 1
0 1 1
0 1 1
0.709407 1 1
1 1 1
