_Sony Slog to rec709.cube
TITLE "Generated by Resolve"
LUT_3D_SIZE 9
0 0 0
0.144121 0 0
0.34081 0 0
0.550546 0 0
0.779034 0 0
1 0 0
1 0 0
1 0 0
1 0 0
0 0.0883497 0
0.0531472 0.0650339 0
0.303807 0.0244907 0
0.528267 0 0
0.76379 0 0
0.989319 0 0
1 0 0
1 0 0
1 0 0
0 0.269963 0
0 0.260105 0
0.226673 0.242084 0
0.4869 0.204532 0
0.73637 0.125765 0
0.968826 0 0
1 0 0
1 0 0
1 0 0
0 0.454765 0
0 0.448829 0
0 0.43827 0
0.397375 0.41767 0
0.681498 0.381399 0
0.928893 0.327199 0
1 0.262043 0
1 0.200092 0
1 0.152422 0
0 0.653742 0
0 0.649683 0
0 0.642512 0
0.174853 0.628794 0
0.579171 0.605493 0
0.858701 0.572961 0
1 0.537942 0
1 0.509407 0
1 0.49099 0
0 0.846052 0
0 0.842969 0
0 0.837583 0
0 0.827314 0
0.40293 0.810101 0
0.754177 0.786572 0
0.98439 0.761975 0
1 0.742504 0
1 0.73022 0
0 1 0
0 0.998505 0
0 0.994034 0
0 0.98555 0
0.0292515 0.971405 0
0.629435 0.952224 0
0.894987 0.932387 0
1 0.916838 0
1 0.907118 0
0 1 0
0 1 0
0 1 0
0 1 0
0 1 0
0.512245 1 0
0.819104 1 0
0.988342 1 0
1 1 0
0 1 0
0 1 0
0 1 0
0 1 0
0 1 0
0.423713 1 0
0.768261 1 0
0.947448 1 0
1 1 0
0 0 0.0650797
0.136324 0 0.0616464
0.337087 0 0.0556344
0.548241 0 0.0443275
0.777447 0 0.0257115
0.999634 0 0.000946059
1 0 0
1 0 0
1 0 0
0 0.0653697 0.0455787
0.0421454 0.0421454 0.0421454
0.299657 0.0016022 0.0361334
0.525872 0 0.0248264
0.762158 0 0.00621042
0.988083 0 0
1 0 0
1 0 0
1 0 0
0 0.260258 0.0115511
0 0.250065 0.0081178
0.221271 0.231373 0.00210575
0.484291 0.192096 0
0.734676 0.107347 0
0.967575 0 0
1 0 0
1 0 0
1 0 0
0 0.448905 0
0 0.442893 0
0 0.432197 0
0.394171 0.411292 0
0.679652 0.374426 0
0.927581 0.319097 0
1 0.252079 0
1 0.187427 0
1 0.136553 0
0 0.649744 0
0 0.64564 0
0 0.638437 0
0.168139 0.624613 0
0.576989 0.601144 0
0.857267 0.568353 0
1 0.533028 0
1 0.504204 0
1 0.485573 0
0 0.843015 0
0 0.839933 0
0 0.834516 0
0 0.824201 0
0.399756 0.806928 0
0.752529 0.783291 0
0.983154 0.758572 0
1 0.73901 0
1 0.726665 0
0 0.998535 0
0 0.995972 0
0 0.991501 0
0 0.982986 0
0.0182498 0.968795 0
0.627436 0.949569 0
0.893614 0.929656 0
1 0.914061 0
1 0.904311 0
0 1 0
0 1 0
0 1 0
0 1 0
0 1 0
0.509773 1 0
0.817594 1 0
0.987121 1 0
1 1 0
0 1 0
0 1 0
0 1 0
0 1 0
0 1 0
0.420706 1 0
0.766644 1 0
0.946166 1 0
1 1 0
0 0 0.242161
0.121904 0 0.240574
0.330495 0 0.237781
0.544198 0 0.232456
0.774655 0 0.223453
0.997528 0 0.210971
1 0 0.197696
1 0 0.186999
1 0 0.180163
0 0.0254368 0.233051
0.0229343 0.00221256 0.231418
0.292287 0 0.228534
0.521645 0 0.223011
0.759319 0 0.213672
0.985946 0 0.200702
1 0 0.186831
1 0 0.175616
1 0 0.168414
0 0.242512 0.216388
0 0.231647 0.214649
0.211582 0.211582 0.211582
0.479683 0.168688 0.205676
0.731701 0.0694591 0.195666
0.965377 0 0.181659
1 0 0.166567
1 0 0.154238
1 0 0.146258
0 0.438514 0.181704
0 0.432349 0.17969
0 0.421393 0.176135
0.38851 0.399939 0.169268
0.676432 0.361944 0.157504
0.925292 0.304494 0.140719
1 0.233799 0.122133
1 0.1635 0.106477
1 0.105196 0.0960555
0 0.64268 0.10898
0 0.638544 0.106065
0 0.631251 0.100847
0.155917 0.617258 0.090547
0.573159 0.593484 0.0719615
0.854765 0.560204 0.0471962
1 0.524315 0.0221408
1 0.494987 0.00292973
1 0.47599 0
0 0.837705 0
0 0.834592 0
0 0.829145 0
0 0.818753 0
0.394186 0.801343 0
0.74963 0.777539 0
0.981003 0.752605 0
1 0.73286 0
1 0.720409 0
0 0.994141 0
0 0.991562 0
0 0.987045 0
0 0.9785 0
0 0.964248 0
0.623926 0.9449 0
0.891234 0.92488 0
1 0.909209 0
1 0.899382 0
0 1 0
0 1 0
0 1 0
0 1 0
0 1 0
0.505409 1 0
0.814954 1 0
0.98497 1 0
1 1 0
0 1 0
0 1 0
0 1 0
0 1 0
0 1 0
0.415396 1 0
0.763806 1 0
0.943923 1 0
1 1 0
0 0 0.417762
0.0910811 0 0.416815
0.317754 0 0.415152
0.536492 0 0.411994
0.769375 0 0.406744
0.99353 0 0.399649
1 0 0.392355
1 0 0.386664
1 0 0.383124
0 0 0.412345
0 0 0.411383
0.277928 0 0.409689
0.513588 0 0.406485
0.753918 0 0.401175
0.981903 0 0.393988
1 0 0.386587
1 0 0.380804
1 0 0.377203
0 0.205615 0.402701
0 0.193057 0.401724
0.192233 0.16939 0.399985
0.470909 0.11603 0.396719
0.726085 0 0.391257
0.961242 0 0.383902
1 0 0.376303
1 0 0.370367
1 0 0.366674
0 0.41825 0.383917
0 0.41178 0.382879
0 0.400259 0.381079
0.37763 0.37763 0.37763
0.670314 0.33724 0.371908
0.920943 0.275059 0.364172
1 0.195544 0.356176
1 0.109194 0.34992
1 0.0316777 0.346014
0 0.629175 0.350881
0 0.624933 0.349752
0 0.617472 0.347784
0.130709 0.603143 0.34403
0.565866 0.578759 0.337758
0.850019 0.544549 0.329259
1 0.507515 0.320439
1 0.477134 0.313512
1 0.457374 0.309178
0 0.827588 0.301701
0 0.824445 0.300389
0 0.818906 0.298116
0 0.808392 0.293767
0.383459 0.790738 0.286488
0.744167 0.766552 0.276539
0.976944 0.741222 0.266133
1 0.721157 0.257908
1 0.708476 0.25272
0 0.985779 0.242969
0 0.983185 0.241382
0 0.978622 0.238605
0 0.970001 0.233295
0 0.955596 0.224323
0.617258 0.936065 0.211887
0.886702 0.915831 0.198657
1 0.899977 0.188006
1 0.890043 0.181186
0 1 0.187762
0 1 0.185794
0 1 0.18233
0 1 0.175662
0 1 0.164233
0.497078 1 0.148013
0.809964 1 0.130159
0.980926 1 0.115221
1 1 0.105348
0 1 0.145998
0 1 0.143618
0 1 0.139391
0 1 0.131167
0 1 0.116808
0.405234 1 0.0956436
0.75845 1 0.0710307
0.939666 1 0.0518196
1 1 0.0399786
0 0 0.605615
0.0316472 0 0.604974
0.295644 0 0.60383
0.523568 0 0.601678
0.760601 0 0.598123
0.986923 0 0.593347
1 0 0.588495
1 0 0.584726
1 0 0.582406
0 0 0.601923
0 0 0.601267
0.25272 0 0.600122
0.500053 0 0.597955
0.744945 0 0.594369
0.975204 0 0.589578
1 0 0.58468
1 0 0.580896
1 0 0.578546
0 0.12874 0.595407
0 0.110369 0.594736
0.15642 0.0724498 0.593576
0.456077 0 0.591394
0.716747 0 0.587762
0.954391 0 0.58291
1 0 0.577951
1 0 0.574121
1 0 0.571756
0 0.382589 0.582925
0 0.375525 0.582254
0 0.36289 0.581064
0.359045 0.337865 0.57882
0.660121 0.292363 0.575113
0.913756 0.219272 0.570153
1 0.114092 0.565072
1 0 0.561151
1 0 0.558724
0 0.606241 0.561761
0 0.601831 0.561059
0 0.594064 0.559823
0.0793469 0.579126 0.557488
0.553643 0.553643 0.553643
0.842161 0.517708 0.54847
1 0.478553 0.543191
1 0.446174 0.539101
1 0.424979 0.536568
0 0.810651 0.53225
0 0.807431 0.531502
0 0.80177 0.53019
0 0.790997 0.527733
0.365148 0.7729 0.523644
0.735073 0.748104 0.518166
0.970199 0.722072 0.512566
1 0.701411 0.508232
1 0.68835 0.505531
0 0.971847 0.500557
0 0.969207 0.499763
0 0.964584 0.498375
0 0.95581 0.49575
0 0.941176 0.491402
0.606119 0.921294 0.485542
0.879194 0.900694 0.479561
1 0.884535 0.474907
1 0.874418 0.472023
0 1 0.4748
0 1 0.47396
0 1 0.472496
0 1 0.469718
0 1 0.465126
0.48307 1 0.45893
0.801678 1 0.452583
0.974212 1 0.447654
1 0.991958 0.444587
0 1 0.458198
0 1 0.457328
0 1 0.455802
0 1 0.452934
0 1 0.448157
0.38793 1 0.441733
0.749538 1 0.435126
0.932631 1 0.429999
1 1 0.42681
0 0 0.786725
0 0 0.786236
0.263645 0 0.785382
0.505837 0 0.783749
0.74876 0 0.781079
0.978042 0 0.777493
1 0 0.773861
1 0 0.771054
1 0 0.769314
0 0 0.783932
0 0 0.783444
0.21529 0 0.782574
0.481437 0 0.780941
0.73283 0 0.778256
0.966217 0 0.774655
1 0 0.771008
1 0 0.7682
1 0 0.766445
0 0 0.779034
0 0 0.778531
0.0961013 0 0.777661
0.435569 0 0.776028
0.704097 0 0.773312
0.945174 0 0.769696
1 0 0.766018
1 0 0.76318
1 0 0.761425
0 0.329427 0.769711
0 0.321263 0.769207
0 0.306523 0.768322
0.332769 0.276829 0.766659
0.646296 0.220493 0.763912
0.904082 0.117647 0.76025
1 0 0.756512
1 0 0.753643
1 0 0.751873
0 0.574243 0.754086
0 0.569574 0.753567
0 0.561334 0.752667
0.000183108 0.545464 0.750973
0.536934 0.518257 0.748165
0.831571 0.479622 0.744411
1 0.437018 0.740597
1 0.401297 0.737652
1 0.377646 0.735836
0 0.787488 0.732754
0 0.784161 0.732219
0 0.778317 0.731289
0 0.767193 0.729534
0.33933 0.74847 0.726635
0.722774 0.722774 0.722774
0.961166 0.69572 0.718822
1 0.674189 0.715785
1 0.660548 0.713909
0 0.952972 0.71046
0 0.950271 0.709911
0 0.945541 0.708949
0 0.936568 0.707134
0 0.921599 0.704143
0.590951 0.901244 0.700145
0.869108 0.880125 0.696056
1 0.863539 0.692912
1 0.853147 0.690974
0 1 0.692851
0 1 0.692287
0 1 0.691295
0 1 0.689433
0 1 0.686351
0.463767 1 0.682231
0.790494 0.996933 0.67805
0.965209 0.982513 0.674815
1 0.97351 0.672816
0 1 0.681743
0 1 0.681178
0 1 0.680171
0 1 0.678279
0 1 0.675135
0.363668 1 0.670954
0.737499 1 0.666682
0.923186 1 0.663386
1 1 0.661357
0 0 0.932555
0 0 0.932143
0.227329 0 0.931426
0.487221 0 0.930083
0.736568 0 0.927871
0.968978 0 0.92491
1 0 0.921904
1 0 0.919585
1 0 0.918151
0 0 0.930236
0 0 0.929824
0.17084 0 0.929107
0.46183 0 0.927764
0.720348 0 0.925536
0.957015 0 0.92256
1 0 0.919554
1 0 0.917235
1 0 0.915801
0 0 0.926177
0 0 0.925765
0.0165103 0 0.925048
0.413794 0 0.92369
0.691066 0 0.921447
0.93576 0 0.918471
1 0 0.915434
1 0 0.9131
1 0 0.911665
0 0.265843 0.918471
0 0.255848 0.918059
0 0.237537 0.917327
0.304036 0.199268 0.915969
0.631983 0.11809 0.91371
0.894179 0 0.910689
1 0 0.907637
1 0 0.905287
1 0 0.903822
0 0.539849 0.905638
0 0.534874 0.905226
0 0.52607 0.904479
0 0.509071 0.90309
0.519463 0.479759 0.900801
0.820706 0.437675 0.897734
1 0.390555 0.894636
1 0.35024 0.892241
1 0.323033 0.890761
0 0.763287 0.888258
0 0.759838 0.887816
0 0.753796 0.887068
0 0.74226 0.885649
0.311162 0.72285 0.883299
0.710094 0.696132 0.880171
0.951919 0.667918 0.876997
1 0.645396 0.874556
1 0.631098 0.873045
0 0.93344 0.870268
0 0.930678 0.869825
0 0.925841 0.869062
0 0.916655 0.867613
0 0.90132 0.865217
0.575189 0.880446 0.862013
0.858763 0.858763 0.858763
1 0.841718 0.85626
1 0.831022 0.854719
0 1 0.856199
0 1 0.855756
0 1 0.854963
0 1 0.853483
0 1 0.851057
0.443366 0.997208 0.847791
0.779004 0.978363 0.84448
0.956008 0.963638 0.841932
1 0.954452 0.84036
0 1 0.84741
0 1 0.846952
0 1 0.846159
0 1 0.844663
0 1 0.842191
0.337423 1 0.838895
0.725109 1 0.835554
0.913512 1 0.832975
1 1 0.831373
0 0 1
0 0 1
0.195697 0 1
0.47245 0 1
0.727062 0 1
0.961959 0 1
1 0 1
1 0 1
1 0 1
0 0 1
0 0 1
0.129458 0 1
0.446204 0 1
0.710613 0 1
0.949905 0 1
1 0 1
1 0 1
1 0 1
0 0 1
0 0 1
0 0 1
0.396307 0 1
0.680873 0 1
0.92845 0 1
1 0 1
1 0 1
1 0 1
0 0.205859 1
0 0.193301 1
0 0.169665 1
0.280186 0.116381 1
0.620768 0 1
0.886503 0 1
1 0 1
1 0 1
1 0 1
0 0.511864 1
0 0.5066 1
0 0.497276 1
0 0.47924 1
0.505653 0.447944 1
0.812268 0.402564 0.998184
1 0.350881 0.995407
1 0.305669 0.993286
1 0.274434 0.991974
0 0.744137 0.989746
0 0.740612 0.989364
0 0.734386 0.988693
0 0.722515 0.987442
0.287846 0.702525 0.985367
0.700206 0.674937 0.982589
0.944762 0.645747 0.979782
1 0.62237 0.977615
1 0.607492 0.976287
0 0.918151 0.973831
0 0.915343 0.973449
0 0.910414 0.972763
0 0.901045 0.971481
0 0.885405 0.96936
0.562783 0.864118 0.966537
0.850736 0.841978 0.963684
1 0.824552 0.961471
1 0.813611 0.960113
0 1 0.961425
0 1 0.961028
0 1 0.960342
0 1 0.959045
0 1 0.956893
0.42707 0.983001 0.954025
0.770077 0.963867 0.951125
0.948898 0.948898 0.948898
1 0.939529 0.947509
0 1 0.953689
0 1 0.953292
0 1 0.95259
0 1 0.951278
0 1 0.949126
0.315908 1 0.946227
0.715434 1 0.943297
0.90602 1 0.941039
1 1 0.939651
0 0 1
0 0 1
0.173938 0 1
0.463096 0 1
0.721141 0 1
0.95761 0 1
1 0 1
1 0 1
1 0 1
0 0 1
0 0 1
0.098558 0 1
0.436301 0 1
0.70454 0 1
0.945495 0 1
1 0 1
1 0 1
1 0 1
0 0 1
0 0 1
0 0 1
0.385138 0 1
0.674525 0 1
0.923934 0 1
1 0 1
1 0 1
1 0 1
0 0.160266 1
0 0.144793 1
0 0.114443 1
0.264515 0.0416114 1
0.613748 0 1
0.881743 0 1
1 0 1
1 0 1
1 0 1
0 0.493797 1
0 0.488334 1
0 0.47866 1
0 0.459876 1
0.496941 0.427176 1
0.807019 0.379355 1
1 0.324132 1
1 0.274907 1
1 0.240162 1
0 0.732082 1
0 0.728481 1
0 0.722148 1
0 0.710063 1
0.272587 0.689677 1
0.694041 0.661509 1
0.940322 0.631662 1
1 0.607721 1
1 0.592447 1
0 0.908583 1
0 0.905745 1
0 0.900755 1
0 0.891279 1
0 0.875456 1
0.555001 0.85388 1
0.845747 0.831449 1
1 0.813779 1
1 0.80267 1
0 1 1
0 1 1
0 1 1
0 1 1
0 0.992859 1
0.416724 0.974151 1
0.764508 0.954803 1
0.944472 0.939666 1
1 0.930205 1
0 1 1
0 1 1
0 1 1
0 1 1
0 1 1
0.301946 1 1
0.709407 1 1
0.901366 1 1
1 1 1
