_Sony Slog to rec709.cube
TITLE "Generated by Resolve"
LUT_3D_SIZE 33
0 0 0
0 0 0
0.0287938 0 0
0.089189 0 0
0.144121 0 0
0.1944 0 0
0.243091 0 0
0.29163 0 0
0.34081 0 0
0.391104 0 0
0.442771 0 0
0.495933 0 0
0.550546 0 0
0.606485 0 0
0.663478 0 0
0.721157 0 0
0.779034 0 0
0.836576 0 0
0.893141 0 0
0.948104 0 0
1 0 0
1 0 0
1 0 0
1 0 0
1 0 0
1 0 0
1 0 0
1 0 0
1 0 0
1 0 0
1 0 0
1 0 0
1 0 0
0 0 0
0 0 0
0.00399786 0 0
0.0643473 0 0
0.126085 0 0
0.180301 0 0
0.23151 0 0
0.281834 0 0
0.332372 0 0
0.383734 0 0
0.436255 0 0
0.49012 0 0
0.545342 0 0
0.601785 0 0
0.659205 0 0
0.71725 0 0
0.775448 0 0
0.833249 0 0
0.890043 0 0
0.945205 0 0
0.998123 0 0
1 0 0
1 0 0
1 0 0
1 0 0
1 0 0
1 0 0
1 0 0
1 0 0
1 0 0
1 0 0
1 0 0
1 0 0
0 0 0
0 0 0
0 0 0
0.0392157 0 0
0.105791 0 0
0.165057 0 0
0.219242 0 0
0.27158 0 0
0.323598 0 0
0.376104 0 0
0.429557 0 0
0.484169 0 0
0.540002 0 0
0.596979 0 0
0.654841 0 0
0.713268 0 0
0.771786 0 0
0.829862 0 0
0.8869 0 0
0.94226 0 0
0.995346 0 0
1 0 0
1 0 0
1 0 0
1 0 0
1 0 0
1 0 0
1 0 0
1 0 0
1 0 0
1 0 0
1 0 0
1 0 0
0 0.0390784 0
0 0.0335699 0
0 0.0279698 0
0.0136873 0.0222934 0
0.0822919 0.0158541 0
0.148394 0.00816358 0
0.206165 0 0
0.260807 0 0
0.314458 0 0
0.368215 0 0
0.422629 0 0
0.47805 0 0
0.534539 0 0
0.59205 0 0
0.650385 0 0
0.709194 0 0
0.768048 0 0
0.826413 0 0
0.88368 0 0
0.939254 0 0
0.992523 0 0
1 0 0
1 0 0
1 0 0
1 0 0
1 0 0
1 0 0
1 0 0
1 0 0
1 0 0
1 0 0
1 0 0
1 0 0
0 0.0883497 0
0 0.0829786 0
0 0.0771496 0
0 0.071458 0
0.0531472 0.0650339 0
0.127687 0.0573434 0
0.190463 0.048188 0
0.248096 0.0373236 0
0.303807 0.0244907 0
0.35906 0.00943008 0
0.414664 0 0
0.471015 0 0
0.528267 0 0
0.586419 0 0
0.645289 0 0
0.704555 0 0
0.76379 0 0
0.822477 0 0
0.880034 0 0
0.935836 0 0
0.989319 0 0
1 0 0
1 0 0
1 0 0
1 0 0
1 0 0
1 0 0
1 0 0
1 0 0
1 0 0
1 0 0
1 0 0
1 0 0
0 0.136706 0
0 0.132677 0
0 0.128511 0
0 0.124178 0
0.0186007 0.119142 0
0.0994278 0.112947 0
0.170214 0.105241 0
0.23212 0.0956436 0
0.290593 0.0834821 0
0.347829 0.0681926 0
0.404929 0.0506294 0
0.46247 0.0302892 0
0.520684 0.0069276 0
0.579614 0 0
0.639139 0 0
0.69897 0 0
0.758663 0 0
0.817761 0 0
0.875654 0 0
0.931746 0 0
0.985458 0 0
1 0 0
1 0 0
1 0 0
1 0 0
1 0 0
1 0 0
1 0 0
1 0 0
1 0 0
1 0 0
1 0 0
1 0 0
0 0.181827 0
0 0.178592 0
0 0.175265 0
0 0.171832 0
0 0.16788 0
0.059144 0.163058 0
0.143359 0.157168 0
0.21178 0.149966 0
0.274113 0.141131 0
0.333989 0.130205 0
0.393042 0.116594 0
0.452079 0.0993973 0
0.511498 0.0769055 0
0.57142 0.05037 0
0.631739 0.0205539 0
0.692241 0 0
0.752529 0 0
0.8121 0 0
0.87039 0 0
0.926848 0 0
0.98085 0 0
1 0 0
1 0 0
1 0 0
1 0 0
1 0 0
1 0 0
1 0 0
1 0 0
1 0 0
1 0 0
1 0 0
1 0 0
0 0.225895 0
0 0.223194 0
0 0.220417 0
0 0.217578 0
0 0.214328 0
0.0103609 0.210376 0
0.105837 0.205585 0
0.18529 0.199802 0
0.25333 0.192767 0
0.316838 0.184253 0
0.378454 0.173892 0
0.439429 0.161273 0
0.500374 0.145785 0
0.561517 0.126589 0
0.622858 0.102312 0
0.684184 0.0704814 0
0.745159 0.0343023 0
0.805325 0 0
0.864118 0 0
0.920989 0 0
0.975357 0 0
1 0 0
1 0 0
1 0 0
1 0 0
1 0 0
1 0 0
1 0 0
1 0 0
1 0 0
1 0 0
1 0 0
1 0 0
0 0.269963 0
0 0.267659 0
0 0.265293 0
0 0.262867 0
0 0.260105 0
0 0.256779 0
0.0500191 0.25275 0
0.149523 0.247913 0
0.226673 0.242084 0
0.295399 0.23508 0
0.36051 0.226673 0
0.424018 0.216602 0
0.4869 0.204532 0
0.549584 0.190051 0
0.612177 0.172656 0
0.674525 0.151598 0
0.73637 0.125765 0
0.797238 0.0931106 0
0.856641 0.0520333 0
0.914031 0.00907912 0
0.968826 0 0
1 0 0
1 0 0
1 0 0
1 0 0
1 0 0
1 0 0
1 0 0
1 0 0
1 0 0
1 0 0
1 0 0
1 0 0
0 0.314641 0
0 0.312627 0
0 0.310582 0
0 0.308492 0
0 0.306096 0
0 0.303227 0
0 0.299763 0
0.0971542 0.295628 0
0.191501 0.290654 0
0.268254 0.284718 0
0.338277 0.277653 0
0.405188 0.269261 0
0.470588 0.259342 0
0.535225 0.247639 0
0.599374 0.233875 0
0.663005 0.217746 0
0.725887 0.198886 0
0.78764 0.176761 0
0.847776 0.150683 0
0.905776 0.119432 0
0.961089 0.0802319 0
1 0.0361791 0
1 0 0
1 0 0
1 0 0
1 0 0
1 0 0
1 0 0
1 0 0
1 0 0
1 0 0
1 0 0
1 0 0
0 0.360235 0
0 0.35848 0
0 0.35668 0
0 0.354833 0
0 0.352743 0
0 0.35024 0
0 0.347219 0
0.0188296 0.343603 0
0.142412 0.3393 0
0.233112 0.334173 0
0.310445 0.328099 0
0.382071 0.320928 0
0.450813 0.312505 0
0.517968 0.302678 0
0.584085 0.291264 0
0.649287 0.278111 0
0.713466 0.26305 0
0.776272 0.245914 0
0.837308 0.226551 0
0.89604 0.204776 0
0.95198 0.180362 0
1 0.152911 0
1 0.121736 0
1 0.0853742 0
1 0.0454108 0
1 0.00828565 0
1 0 0
1 0 0
1 0 0
1 0 0
1 0 0
1 0 0
1 0 0
0 0.406943 0
0 0.405371 0
0 0.403784 0
0 0.402152 0
0 0.400305 0
0 0.398077 0
0 0.395407 0
0 0.392233 0
0.0636759 0.388449 0
0.185657 0.383948 0
0.275029 0.378637 0
0.353475 0.372396 0
0.426764 0.365103 0
0.4972 0.356649 0
0.56582 0.346914 0
0.633005 0.33579 0
0.698772 0.323232 0
0.76289 0.309148 0
0.824994 0.293568 0
0.884627 0.276493 0
0.941314 0.258015 0
0.994614 0.238224 0
1 0.217227 0
1 0.195193 0
1 0.172229 0
1 0.148394 0
1 0.12372 0
1 0.0980697 0
1 0.0711833 0
1 0.0468299 0
1 0.0255436 0
1 0.0071107 0
1 0 0
0 0.454765 0
0 0.453361 0
0 0.451926 0
0 0.450477 0
0 0.448829 0
0 0.446845 0
0 0.444465 0
0 0.441642 0
0 0.43827 0
0.115099 0.434287 0
0.228489 0.429587 0
0.317647 0.424079 0
0.397375 0.41767 0
0.472221 0.410269 0
0.544091 0.401801 0
0.613764 0.392187 0
0.681498 0.381399 0
0.747204 0.369451 0
0.810605 0.356359 0
0.871321 0.342229 0
0.928893 0.327199 0
0.98294 0.311437 0
1 0.295171 0
1 0.278614 0
1 0.262043 0
1 0.245701 0
1 0.229801 0
1 0.214542 0
1 0.200092 0
1 0.186587 0
1 0.174105 0
1 0.162722 0
1 0.152422 0
0 0.503609 0
0 0.502342 0
0 0.50106 0
0 0.499748 0
0 0.498253 0
0 0.496483 0
0 0.494347 0
0 0.491798 0
0 0.488777 0
0 0.485206 0
0.163104 0.48101 0
0.271717 0.476112 0
0.361166 0.470405 0
0.442115 0.463844 0
0.518242 0.456367 0
0.591089 0.447913 0
0.66128 0.438483 0
0.728939 0.428107 0
0.793912 0.416815 0
0.855909 0.404746 0
0.914565 0.39202 0
0.969482 0.378851 0
1 0.365438 0
1 0.35201 0
1 0.338796 0
1 0.325994 0
1 0.313817 0
1 0.302403 0
1 0.291844 0
1 0.282231 0
1 0.273594 0
1 0.265888 0
1 0.259129 0
0 0.553277 0
0 0.552132 0
0 0.550958 0
0 0.549767 0
0 0.548424 0
0 0.546807 0
0 0.544884 0
0 0.54258 0
0 0.539849 0
0 0.536629 0
0.0522164 0.532845 0
0.209964 0.528435 0
0.315801 0.523308 0
0.405631 0.517433 0
0.487526 0.51075 0
0.564477 0.503227 0
0.637736 0.494865 0
0.707805 0.485679 0
0.774685 0.475776 0
0.838239 0.465232 0
0.898146 0.4542 0
0.954116 0.442847 0
1 0.431403 0
1 0.420035 0
1 0.408957 0
1 0.398337 0
1 0.388342 0
1 0.37908 0
1 0.370596 0
1 0.362951 0
1 0.356146 0
1 0.350149 0
1 0.344915 0
0 0.603449 0
0 0.602411 0
0 0.601343 0
0 0.600259 0
0 0.599023 0
0 0.597559 0
0 0.595789 0
0 0.593698 0
0 0.591211 0
0 0.588281 0
0 0.584848 0
0.115877 0.58085 0
0.257053 0.576211 0
0.360967 0.570886 0
0.450965 0.564858 0
0.533318 0.558083 0
0.610513 0.550576 0
0.683528 0.542367 0
0.752743 0.533532 0
0.818143 0.524178 0
0.879545 0.514427 0
0.936751 0.504463 0
0.989502 0.494438 0
1 0.484565 0
1 0.474998 0
1 0.465888 0
1 0.457359 0
1 0.449485 0
1 0.442344 0
1 0.435935 0
1 0.430259 0
1 0.425284 0
1 0.420966 0
0 0.653742 0
0 0.652781 0
0 0.651804 0
0 0.650813 0
0 0.649683 0
0 0.648325 0
0 0.646708 0
0 0.644785 0
0 0.642512 0
0 0.639826 0
0 0.636683 0
0 0.633021 0
0.174853 0.628794 0
0.305058 0.623957 0
0.407218 0.618463 0
0.496956 0.612299 0
0.579171 0.605493 0
0.655894 0.598077 0
0.727916 0.590112 0
0.795514 0.581689 0
0.858701 0.572961 0
0.917327 0.56405 0
0.971252 0.555138 0
1 0.546395 0
1 0.537942 0
1 0.529946 0
1 0.522469 0
1 0.515618 0
1 0.509407 0
1 0.503868 0
1 0.49897 0
1 0.494697 0
1 0.49099 0
0 0.703685 0
0 0.702785 0
0 0.701885 0
0 0.700969 0
0 0.699916 0
0 0.698665 0
0 0.697185 0
0 0.695415 0
0 0.693309 0
0 0.690837 0
0 0.687938 0
0 0.684565 0
0.0301518 0.680674 0
0.231678 0.676219 0
0.354253 0.671183 0
0.454475 0.665553 0
0.543313 0.659327 0
0.624659 0.652537 0
0.700114 0.645289 0
0.770352 0.637629 0
0.835599 0.629709 0
0.895872 0.621653 0
0.951141 0.613626 0
1 0.605753 0
1 0.598184 0
1 0.591028 0
1 0.58436 0
1 0.578271 0
1 0.572763 0
1 0.567849 0
1 0.563531 0
1 0.559762 0
1 0.556497 0
0 0.752728 0
0 0.751904 0
0 0.751064 0
0 0.75021 0
0 0.749233 0
0 0.748074 0
0 0.7467 0
0 0.745052 0
0 0.743099 0
0 0.74081 0
0 0.738109 0
0 0.734997 0
0 0.73138 0
0.12134 0.72726 0
0.288289 0.722606 0
0.404623 0.717403 0
0.502449 0.71165 0
0.58967 0.705409 0
0.669306 0.698741 0
0.742672 0.691722 0
0.810346 0.684459 0
0.872526 0.677104 0
0.92932 0.669764 0
0.980789 0.662593 0
1 0.655726 0
1 0.649226 0
1 0.643198 0
1 0.637705 0
1 0.632731 0
1 0.628321 0
1 0.62443 0
1 0.621042 0
1 0.618128 0
0 0.800366 0
0 0.799588 0
0 0.79881 0
0 0.798001 0
0 0.797101 0
0 0.796017 0
0 0.79472 0
0 0.793179 0
0 0.791363 0
0 0.789212 0
0 0.786709 0
0 0.783795 0
0 0.780423 0
0 0.776593 0
0.200443 0.772244 0
0.345357 0.767407 0
0.455955 0.762066 0
0.55079 0.756268 0
0.635554 0.750088 0
0.712642 0.743587 0
0.783108 0.736873 0
0.847471 0.730068 0
0.906004 0.723323 0
0.958846 0.716716 0
1 0.710399 0
1 0.704448 0
1 0.698924 0
1 0.693889 0
1 0.689357 0
1 0.685328 0
1 0.681788 0
1 0.678706 0
1 0.676036 0
0 0.846052 0
0 0.845319 0
0 0.844587 0
0 0.843824 0
0 0.842969 0
0 0.841962 0
0 0.840742 0
0 0.839292 0
0 0.837583 0
0 0.835569 0
0 0.833204 0
0 0.830472 0
0 0.827314 0
0 0.823713 0
0.0530251 0.819638 0
0.272602 0.815106 0
0.40293 0.810101 0
0.507866 0.804685 0
0.598978 0.798901 0
0.680461 0.792828 0
0.754177 0.786572 0
0.821012 0.780255 0
0.881453 0.773968 0
0.935836 0.767834 0
0.98439 0.761975 0
1 0.756451 0
1 0.751339 0
1 0.746685 0
1 0.742504 0
1 0.738781 0
1 0.735515 0
1 0.732677 0
1 0.73022 0
0 0.889311 0
0 0.888624 0
0 0.887922 0
0 0.887205 0
0 0.886397 0
0 0.885435 0
0 0.884291 0
0 0.882918 0
0 0.8813 0
0 0.879393 0
0 0.877165 0
0 0.874571 0
0 0.871595 0
0 0.868193 0
0 0.864347 0
0.175647 0.860075 0
0.341756 0.85536 0
0.460716 0.850248 0
0.559777 0.844816 0
0.646479 0.839094 0
0.723888 0.833219 0
0.793484 0.827283 0
0.856062 0.821393 0
0.912093 0.815641 0
0.96199 0.810162 0
1 0.80499 0
1 0.800229 0
1 0.79588 0
1 0.791974 0
1 0.788495 0
1 0.785458 0
1 0.782803 0
1 0.780529 0
0 0.929747 0
0 0.929091 0
0 0.92842 0
0 0.927749 0
0 0.92697 0
0 0.926055 0
0 0.924956 0
0 0.923659 0
0 0.922118 0
0 0.920302 0
0 0.918181 0
0 0.915724 0
0 0.912886 0
0 0.909667 0
0 0.90602 0
0.01178 0.901946 0
0.269169 0.897475 0
0.408988 0.892638 0
0.518181 0.88748 0
0.611063 0.882063 0
0.692699 0.876509 0
0.765347 0.870893 0
0.830228 0.865324 0
0.88806 0.859892 0
0.939345 0.854719 0
0.984573 0.849851 0
1 0.84535 0
1 0.84126 0
1 0.837583 0
1 0.834318 0
1 0.831464 0
1 0.828977 0
1 0.826825 0
0 0.967056 0
0 0.96643 0
0 0.965789 0
0 0.965148 0
0 0.964401 0
0 0.963531 0
0 0.962478 0
0 0.961227 0
0 0.959762 0
0 0.958022 0
0 0.955993 0
0 0.953643 0
0 0.950927 0
0 0.947845 0
0 0.944366 0
0 0.940475 0
0.176471 0.936217 0
0.35201 0.931594 0
0.474434 0.926665 0
0.574655 0.921508 0
0.661051 0.916213 0
0.737041 0.910872 0
0.804395 0.905562 0
0.864118 0.900404 0
0.916884 0.895491 0
0.963287 0.890867 0
1 0.886595 0
1 0.882704 0
1 0.879225 0
1 0.876127 0
1 0.873426 0
1 0.871061 0
1 0.869032 0
0 1 0
0 1 0
0 0.999832 0
0 0.999207 0
0 0.998505 0
0 0.99765 0
0 0.996643 0
0 0.995453 0
0 0.994034 0
0 0.992355 0
0 0.990417 0
0 0.988144 0
0 0.98555 0
0 0.982574 0
0 0.979232 0
0 0.975494 0
0.0292515 0.971405 0
0.288258 0.966964 0
0.428733 0.962249 0
0.537713 0.957305 0
0.629435 0.952224 0
0.709056 0.947097 0
0.779019 0.942031 0
0.840696 0.937087 0
0.894987 0.932387 0
0.94258 0.927962 0
0.984054 0.923888 0
1 0.920165 0
1 0.916838 0
1 0.913893 0
1 0.911299 0
1 0.909056 0
1 0.907118 0
0 1 0
0 1 0
0 1 0
0 1 0
0 1 0
0 1 0
0 1 0
0 1 0
0 1 0
0 1 0
0 1 0
0 1 0
0 1 0
0 1 0
0 1 0
0 1 0
0 1 0
0.21416 0.998749 0
0.381231 0.994186 0
0.50071 0.989425 0
0.598337 0.984527 0
0.681819 0.979583 0
0.754498 0.974701 0
0.818189 0.969955 0
0.874006 0.965423 0
0.922774 0.961166 0
0.965209 0.957244 0
1 0.953674 0
1 0.950469 0
1 0.947631 0
1 0.945144 0
1 0.942992 0
1 0.941131 0
0 1 0
0 1 0
0 1 0
0 1 0
0 1 0
0 1 0
0 1 0
0 1 0
0 1 0
0 1 0
0 1 0
0 1 0
0 1 0
0 1 0
0 1 0
0 1 0
0 1 0
0.118746 1 0
0.331868 1 0
0.464057 1 0
0.5682 1 0
0.655726 1 0
0.731182 1 0
0.796887 0.999084 0
0.854231 0.99469 0
0.904173 0.990585 0
0.947524 0.986786 0
0.984955 0.983337 0
1 0.98024 0
1 0.977508 0
1 0.975097 0
1 0.973022 0
1 0.971222 0
0 1 0
0 1 0
0 1 0
0 1 0
0 1 0
0 1 0
0 1 0
0 1 0
0 1 0
